X:1
T:74
L:1/8
Q:1/4=88
M:2/4
K:Bb
V:1 treble nm="Piano" snm="Pno."
V:1
"^中快板" F2 F2 | B2 cf | c2 B2 | cf !breath!G2 | F2 FD | FG B2 | FB DC | B,4 | F2 CB, | CD F2 | %10
 FD CB, | CD !breath!C2 | F2 FF | B2 cf | cf cB | F4 |] %16

